src/assets/img/startup-co-single.svg

<svg width="48" height="49" viewBox="0 0 48 49" fill="none" xmlns="http://www.w3.org/2000/svg">
<path d="M22 1.59757C23.2376 0.88304 24.7624 0.88304 26 1.59757L42.7846 11.2882C44.0222 12.0027 44.7846 13.3232 44.7846 14.7523V34.1335C44.7846 35.5625 44.0222 36.883 42.7846 37.5976L26 47.2882C24.7624 48.0027 23.2376 48.0027 22 47.2882L5.21539 37.5976C3.97779 36.883 3.21539 35.5625 3.21539 34.1335V14.7523C3.21539 13.3232 3.97779 12.0027 5.21539 11.2882L22 1.59757Z" fill="#EEB649"/>
<path d="M13.6694 21.776C13.4456 22.6472 13.3327 23.5432 13.3334 24.4427C13.3334 25.3627 13.4507 26.256 13.6694 27.1094H17.4667C17.287 25.3361 17.287 23.5493 17.4667 21.776H13.6694ZM14.7601 19.1094H17.8881C18.2427 17.4867 18.7547 16.0334 19.3827 14.824C17.447 15.7566 15.8364 17.2497 14.7601 19.1094ZM34.3307 21.776H30.5334C30.7132 23.5493 30.7132 25.3361 30.5334 27.1094H34.3307C34.7796 25.3599 34.7796 23.5255 34.3307 21.776ZM33.2401 19.1094C32.1638 17.2497 30.5532 15.7566 28.6174 14.824C29.2467 16.0334 29.7574 17.4867 30.1121 19.1094H33.2401ZM20.1494 21.776C20.0495 22.6614 19.9997 23.5517 20.0001 24.4427C20.0001 25.356 20.0507 26.2494 20.1494 27.1094H27.8507C28.0516 25.3373 28.0516 23.5481 27.8507 21.776H20.1494ZM20.6267 19.1094H27.3734C27.1308 18.1071 26.7807 17.1339 26.3294 16.2067C25.4921 14.5334 24.5961 13.776 24.0001 13.776C23.4027 13.776 22.5081 14.5334 21.6707 16.2067C21.2507 17.0494 20.8974 18.0294 20.6267 19.1094ZM14.7601 29.776C15.8364 31.6357 17.447 33.1288 19.3827 34.0614C18.7534 32.852 18.2427 31.3987 17.8881 29.776H14.7601ZM33.2401 29.776H30.1121C29.7574 31.3987 29.2454 32.852 28.6174 34.0614C30.5532 33.1288 32.1638 31.6357 33.2401 29.776ZM20.6267 29.776C20.8974 30.856 21.2507 31.836 21.6707 32.6787C22.5081 34.352 23.4041 35.1094 24.0001 35.1094C24.5974 35.1094 25.4921 34.352 26.3294 32.6787C26.7494 31.836 27.1027 30.856 27.3734 29.776H20.6267ZM24.0001 37.776C16.6361 37.776 10.6667 31.8067 10.6667 24.4427C10.6667 17.0787 16.6361 11.1094 24.0001 11.1094C31.3641 11.1094 37.3334 17.0787 37.3334 24.4427C37.3334 31.8067 31.3641 37.776 24.0001 37.776Z" fill="white"/>
</svg>

<svg width="48" height="49" fill="none" xmlns="http://www.w3.org/2000/svg"><path d="M22 1.598a4 4 0 014 0l16.785 9.69a4 4 0 012 3.464v19.381a4 4 0 01-2 3.465L26 47.288a4 4 0 01-4 0l-16.785-9.69a4 4 0 01-2-3.465v-19.38a4 4 0 012-3.465L22 1.598z" fill="#EEB649"/><path d="M13.67 21.776a10.729 10.729 0 000 5.333h3.797a26.45 26.45 0 010-5.333h-3.798zm1.09-2.667h3.128c.355-1.622.867-3.076 1.495-4.285a10.714 10.714 0 00-4.623 4.285zm19.57 2.667h-3.797c.18 1.773.18 3.56 0 5.333h3.798a10.73 10.73 0 000-5.333zm-1.09-2.667a10.714 10.714 0 00-4.623-4.285c.63 1.21 1.14 2.663 1.495 4.285h3.128zm-13.09 2.667c-.1.885-.15 1.776-.15 2.667 0 .913.05 1.806.15 2.666h7.7c.202-1.772.202-3.56 0-5.333h-7.7zm.477-2.667h6.746a14.342 14.342 0 00-1.044-2.902c-.837-1.674-1.733-2.431-2.329-2.431-.597 0-1.492.757-2.33 2.43-.42.843-.773 1.823-1.043 2.903zM14.76 29.776a10.714 10.714 0 004.623 4.285c-.63-1.209-1.14-2.662-1.495-4.285H14.76zm18.48 0h-3.128c-.355 1.623-.867 3.076-1.495 4.285a10.714 10.714 0 004.623-4.285zm-12.613 0c.27 1.08.624 2.06 1.044 2.903.837 1.673 1.733 2.43 2.33 2.43.596 0 1.491-.757 2.328-2.43.42-.843.774-1.823 1.044-2.903h-6.746zm3.373 8c-7.364 0-13.333-5.97-13.333-13.333 0-7.364 5.97-13.334 13.333-13.334 7.364 0 13.333 5.97 13.333 13.334S31.364 37.776 24 37.776z" fill="#fff"/></svg>
